X:780
T: Killinure
S: B.Breathnach: "Ceol Rince na hEireann" II/224 (gan ainm)
Z: B.Black
L: 1/8
M: 4/4
R: reel
K: G
D|EGAB c3d|eeed Bcdf|eAAA BGGG|AcBA GEDA|
EAAB cBcd|e2ed (3Bcd ef|eAAA BAGE|1 AcBG A3 :|2\
AcBG A3 z||
eaag ed (3Bcd|eaag e2 df|eAAA BGGG|AcBA GEDA|
|1 eaag ed (3Bcd|e2 ag efdf|eAAA BAGE|AcBG A2-A2 :|
|2 EAAB cBcd|eeed Bc d2|eA (3AAA BAGE|AcBG AA A2 ||

